X:882
T:This is No' My Ain House
R:Reel
B:The Athole Collection
M:C|
L:1/8
K:D
A|FAAa f2 ed|B/c/d AF BEEG|FA Da f2 ed|B/c/d AG FDD:|
A|FAAd B/c/d AF|GBAF BEEG|F(AA)d B/c/d AF|GBAG FDDG|
FAAd B/c/d AF|GBAF BEEG|FADa gfed|B/c/d AG FDD||

